X:1
T:Show Me the Way, Dear Savior
T:Allie Toland Criss, 1893
T:Show Me the Way, Dear Savior
T:Public Domain
T:Public Domain
T:Public Domain
C:Allie Toland Criss, 1893
Z:Public Domain
%%score ( 1 2 ) ( 3 4 )
L:1/8
M:6/4
K:Bb
V:1 treble 
V:2 treble 
V:3 bass 
V:4 bass 
V:1
 [B,D]2 [CE]2 [DF]2 [EG]4 [DF]2 | [DF]6 [CE]4 [=B,D]2 | [CE]2 [CF]2 [EG]2 [EA]4 [EG]2 | %3
w: 1.~Show me the way, dear|Sav- ior! The|sha- dows are fall- ing|
w: 2.~Show me the way, dear|Sav- ior! The|night is so wild and|
w: 3.~Show me the way, dear|Sav- ior! My|cour- age is fail- ing|
 [DF]6- [DF]4 [DF]2 | (F2 B2) [Dc]2 [^Fd]4 [Fc]2 | [Ac]6 [GB]4 [GB]2 | [=EA]4 [EG]2 [EB]4 [CE]2 | %7
w: fast; * And|thro’ * the clouds a-|me No ray|of light is cast;|
w: dark; * I|can- * not stem the|rent, Un- less|Thou guide my bark;|
w: fast; * My|storm * tossed bark is|ing; Shall I|be lost at last?|
 (C4 D2 [EF]4) [EF]2 | [DB]4 [DB]2 [DA]4 [DA]2 | [DG]6 [B,D]4 [B,D]2 | %10
w: The * * storm|wild- ly rag- ing,|The thun- ders|
w: Oh, * * fierc-|grows the tem- pest,|And wild- er|
w: Come * * near-|near- er to me,|And speak the|
 (D2 =E2) [C^F]2 [DG]4 [DA]2 | [GB]6- [GB]4 [GB]2 | [=EB]4 [EB]2 (B2 A2) [EB]2 | %13
w: loud- * ly roar; The|less * waves|are dash- ing * A-|
w: rolls * the sea! Help!|me * O|my Sav- ior! * I|
w: word * of peace That|the * an-|gry wa- ters, * And|
 (f4 d2) [=Ec]4 [EG]2 | [_EB]4 [EB]2 [EB]4 [EA]2 | [DB]6- [DB]4 z2 || %16
w: the * wreck- strewn|||
w: a- * lone in|Show me the way,|dear *|
w: the * tem- pest|||
"^Refrain" [B,D]2 [CE]2 [DF]2 [EG]4 [DF]2 | [DF]6 [CE]4 [=B,D]2 | (E2 F2) [EG]2 [EA]4 [EG]2 | %19
w: |||
w: Sav- ior That Thou wouldst|have me go;|Show * me the way,|
w: |||
 [DF]6- [DF]4 z2 | [DF]2 [DB]2 [Dc]2 [^Fd]4 [Fc]2 | [Ac]6 [GB]4 [^CG]2 | %22
w: |||
w: Sav- *|ior, For Thou a- lone|dost know. *|
w: |||
 (G2 F2) [FB]2 [EB]4 [EA]2 | [DB]6- [DB]4 z2 |] %24
w: ||
w: ||
w: ||
V:2
 x12 | x12 | x12 | x12 | D4 x8 | x12 | x12 | F6- x6 | x12 | x12 | C4 x8 | x12 | x6 =E4 x2 | F6 x6 | %14
w: ||||bove|||is|||rest-||gainst|shore.|
w: ||||cur-|||er|||help||trust|Thee.|
w: ||||sink-|||er,|||stills||bids|cease.|
 x12 | x12 || x12 | x12 | C4 x8 | x12 | x12 | x12 | D4 x8 | x12 |] %24
w: ||||||||||
w: ||||dear||||||
w: ||||||||||
V:3
 [B,,F,]2 [B,,F,]2 [B,,B,]2 [B,,B,]4 [B,,B,]2 | [F,B,]6 [F,A,]4 [F,^G,]2 | %2
 [F,A,]2 [F,A,]2 [F,A,]2 [F,C]4 [F,A,]2 | [B,,B,]6- [B,,B,]4 [B,,B,]2 | B,4 B,2 [A,D]4 [A,D]2 | %5
 [G,D]6 [G,D]4 [G,D]2 | [C,C]4 [C,B,]2 [C,G,]4 [C,B,]2 | (A,4 B,2 [F,C]4) [F,A,]2 | %8
 [B,,F,]4 [B,,F,]2 (^F,2 G,2) [B,,A,]2 | [B,,B,]6 [B,,F,]4 [B,,F,]2 | %10
 (^F,2 G,2) [G,,A,,A,]2 [G,,B,]4 [^F,,F,C]2 | [G,,G,D]6- [G,,G,D]4 [G,D]2 | %12
 [_G,^C]4 [G,C]2 [G,C]4 [G,C]2 | (D4 B,2) [G,B,]4 [C,C]2 | [F,C]4 [_G,C]2 [F,C]4 F,2 | %15
 [B,,F,]6- [B,,F,]4 z2 || [B,,F,]2 [B,,F,]2 [B,,B,]2 [B,,B,]4 [B,,B,]2 | [F,B,]6 [F,A,]4 [F,^G,]2 | %18
 [F,A,]4 [F,A,]2 [F,C]4 [F,A,]2 | [B,,B,]6- [B,,B,]4 z2 | B,2 B,2 B,2 [A,D]4 [A,D]2 | %21
 [G,D]6 [G,D]4 [=E,B,]2 | [F,B,]4 [F,D]2 [F,C]4 F,2 | [B,,F,]6- [B,,F,]4 z2 |] %24
V:4
 x12 | x12 | x12 | x12 | B,4 B,2 x6 | x12 | x12 | F,6- x6 | x6 B,,4 x2 | x12 | A,,4 x8 | x12 | %12
 x12 | F,6 x6 | x10 F,2 | x12 || x12 | x12 | x12 | x12 | B,2 B,2 B,2 x6 | x12 | x10 F,2 | x12 |] %24

